Newaita-dark/apps/64/com.github.jeremyvaartjes.comgen.svg

<svg height="64" viewBox="0 0 64 64" width="64" xmlns="http://www.w3.org/2000/svg" xmlns:xlink="http://www.w3.org/1999/xlink"><linearGradient id="a" gradientUnits="userSpaceOnUse" x1="31.75304" x2="31.75304" y1="56.067872" y2="58.71396000006"><stop offset="0" stop-opacity=".27451"/><stop offset="1" stop-opacity="0"/></linearGradient><linearGradient id="b"><stop offset="0" stop-opacity=".313726"/><stop offset=".222222" stop-opacity=".27451"/><stop offset="1" stop-opacity="0"/></linearGradient><radialGradient id="c" cx="450.908936" cy="189.579361" gradientTransform="matrix(.00000035 -.156265 -.281277 -.0000002 104.261296 127.190665)" gradientUnits="userSpaceOnUse" r="21.166656" xlink:href="#b"/><radialGradient id="d" cx="450.908936" cy="189.579361" gradientTransform="matrix(-.00000035 .156265 .281277 .0000002 -40.755227 -15.054958)" gradientUnits="userSpaceOnUse" r="21.166656" xlink:href="#b"/><radialGradient id="e" cx="450.908936" cy="189.579361" gradientTransform="matrix(-.00000035 -.156265 .281277 -.0000002 -40.755227 127.190665)" gradientUnits="userSpaceOnUse" r="21.166656" xlink:href="#b"/><radialGradient id="f" cx="450.908936" cy="189.579361" gradientTransform="matrix(.00000035 .156265 -.281277 .0000002 104.261293 -15.054959)" gradientUnits="userSpaceOnUse" r="21.166656" xlink:href="#b"/><linearGradient id="g" gradientUnits="userSpaceOnUse" x1="21.16869799994" x2="21.16869799994" y1="56.067868" y2="5.79221000013"><stop offset="0" stop-color="#e0e0e0"/><stop offset="1" stop-color="#eee"/></linearGradient><linearGradient id="h" gradientUnits="userSpaceOnUse" x1="254" x2="254" y1="233.5" y2="-168.666672"><stop offset="0" stop-color="#616161"/><stop offset="1" stop-color="#757575"/></linearGradient><path d="m11.90625 55.871094h39.691406v2.941406h-39.691406zm0 0" fill="url(#a)"/><path d="m51.597656 56.066406h5.292969v-2.644531h-5.292969zm0 0" fill="url(#c)"/><path d="m11.90625 56.066406h-5.292969v2.648438h5.292969zm0 0" fill="url(#d)"/><path d="m11.90625 56.066406h-5.292969v-2.644531h5.292969zm0 0" fill="url(#e)"/><path d="m51.597656 56.066406h5.292969v2.648438h-5.292969zm0 0" fill="url(#f)"/><path d="m9.261719 5.792969h44.984375c1.460937 0 2.644531 1.183593 2.644531 2.644531v44.984375c0 1.460937-1.183594 2.644531-2.644531 2.644531h-44.984375c-1.460938 0-2.648438-1.183594-2.648438-2.644531v-44.984375c0-1.460938 1.1875-2.644531 2.648438-2.644531zm0 0" fill="url(#g)"/><path d="m9.261719 5.976562c-1.464844 0-2.648438 1.179688-2.648438 2.648438v.328125c0-1.464844 1.183594-2.648437 2.648438-2.644531h44.984375c1.464844-.003906 2.644531 1.179687 2.644531 2.644531v-.328125c0-1.46875-1.179687-2.648438-2.644531-2.648438zm0 0" fill="#f8f8f8" fill-opacity=".392157"/><path d="m9.261719 55.902344c-1.464844 0-2.648438-1.179688-2.648438-2.644532v-.332031c0 1.464844 1.183594 2.644531 2.648438 2.644531h44.984375c1.464844 0 2.644531-1.179687 2.644531-2.644531v.332031c0 1.464844-1.179687 2.644532-2.644531 2.644532zm0 0" fill-opacity=".196078"/><g fill="none" stroke-linecap="round" transform="matrix(.125012 0 0 .125012 0 26.877566)"><path d="m74.086675-168.660675h359.840637c11.686384 0 21.15423 9.467846 21.15423 21.15423v359.840637c0 11.686384-9.467846 21.154229-21.15423 21.154229h-359.840637c-11.686384 0-21.185477-9.467845-21.185477-21.154229v-359.840637c0-11.686384 9.499093-21.15423 21.185477-21.15423zm0 0" stroke="#212121" stroke-width="3"/><path d="m158.734842 127.654778 74.086675-190.48181" stroke="url(#h)" stroke-linejoin="round" stroke-width="31"/><path d="m275.161223 127.654778 74.086675-190.48181" stroke="url(#h)" stroke-linejoin="round" stroke-width="31"/></g><path d="m29.03125 17.0625c-.777344.03125-1.457031.527344-1.730469 1.257812l-9.261719 23.816407c-.15625.386719-.183593.8125-.078124 1.214843.019531-.082031.046874-.167968.078124-.246093l9.261719-23.816407c.273438-.730468.953125-1.222656 1.730469-1.257812.914062-.039062 1.730469.566406 1.960938 1.449219.152343-.59375.015624-1.226563-.371094-1.703125-.386719-.476563-.976563-.742188-1.589844-.714844zm14.554688 0c-.777344.03125-1.460938.527344-1.730469 1.257812l-9.261719 23.816407c-.15625.382812-.179688.804687-.078125 1.207031.019531-.082031.046875-.160156.078125-.238281l9.261719-23.816407c.269531-.726562.953125-1.222656 1.730469-1.257812.914062-.039062 1.730468.566406 1.957031 1.449219.15625-.59375.019531-1.226563-.367188-1.703125-.386719-.476563-.976562-.742188-1.589843-.714844zm0 0" fill="#fff" fill-opacity=".392157"/><path d="m30.972656 19.589844c-.019531.054687-.039062.113281-.058594.167968l-9.261718 23.816407c-.289063.777343-1.046875 1.285156-1.878906 1.261719-.832032-.027344-1.554688-.582032-1.792969-1.378907-.300781 1 .25 2.054688 1.238281 2.386719.992188.332031 2.066406-.179688 2.433594-1.15625l9.261718-23.816406c.164063-.40625.183594-.859375.058594-1.28125zm0 0" fill-opacity=".235294"/><path d="m45.523438 19.589844c-.015626.054687-.035157.113281-.058594.167968l-9.257813 23.816407c-.292969.777343-1.050781 1.28125-1.882812 1.253906-.828125-.027344-1.550781-.582031-1.789063-1.378906-.292968 1 .253906 2.050781 1.238282 2.382812.988281.335938 2.0625-.171875 2.433593-1.144531l9.257813-23.816406c.167968-.40625.1875-.859375.058594-1.28125zm0 0" fill-opacity=".235294"/><path d="m232.227823-78.513034c-6.218156.249976-11.655137 4.218347-13.842428 10.061539l-74.086675 190.513057c-2.124797 5.187005-1.281127 11.092691 2.218538 15.467273 3.468419 4.405829 9.061635 6.561874 14.592357 5.686957 5.530722-.874916 10.15528-4.687052 12.092595-9.936551l74.086675-190.48181c1.968562-4.905781 1.343622-10.46775-1.718586-14.779838-3.03096-4.312089-8.06173-6.780603-13.342476-6.530627zm0 0" fill="none" stroke="#212121" stroke-linecap="round" stroke-linejoin="round" stroke-width="3" transform="matrix(.125012 0 0 .125012 0 26.877566)"/><path d="m348.654205-78.513034c-6.218156.249976-11.686384 4.218347-13.842428 10.061539l-74.086675 190.513057c-2.09355 5.155758-1.249881 11.061444 2.249785 15.436026 3.468419 4.374582 9.030388 6.530627 14.529863 5.65571 5.530721-.874916 10.15528-4.624558 12.123842-9.874057l74.055428-190.48181c1.999809-4.905781 1.343622-10.46775-1.687339-14.779838-3.062208-4.312089-8.092977-6.780603-13.342476-6.530627zm0 0" fill="none" stroke="#212121" stroke-linecap="round" stroke-linejoin="round" stroke-width="3" transform="matrix(.125012 0 0 .125012 0 26.877566)"/></svg>

<?xml version="1.0" encoding="UTF-8"?>
<svg xmlns="http://www.w3.org/2000/svg" xmlns:xlink="http://www.w3.org/1999/xlink" width="64px" height="64px" viewBox="0 0 64 64" version="1.1">
<defs>
<linearGradient id="linear0" gradientUnits="userSpaceOnUse" x1="254" y1="233.5" x2="254" y2="254.666672" gradientTransform="matrix(0.125012,0,0,0.125012,-0.00000763012,26.87757)">
<stop offset="0" style="stop-color:rgb(0%,0%,0%);stop-opacity:0.27451;"/>
<stop offset="1" style="stop-color:rgb(0%,0%,0%);stop-opacity:0;"/>
</linearGradient>
<radialGradient id="radial0" gradientUnits="userSpaceOnUse" cx="450.908936" cy="189.579361" fx="450.908936" fy="189.579361" r="21.166656" gradientTransform="matrix(0.000000348341,-0.156265,-0.281277,-0.000000203077,104.261296,127.190665)">
<stop offset="0" style="stop-color:rgb(0%,0%,0%);stop-opacity:0.313726;"/>
<stop offset="0.222222" style="stop-color:rgb(0%,0%,0%);stop-opacity:0.27451;"/>
<stop offset="1" style="stop-color:rgb(0%,0%,0%);stop-opacity:0;"/>
</radialGradient>
<radialGradient id="radial1" gradientUnits="userSpaceOnUse" cx="450.908936" cy="189.579361" fx="450.908936" fy="189.579361" r="21.166656" gradientTransform="matrix(-0.000000348341,0.156265,0.281277,0.000000203077,-40.755227,-15.054958)">
<stop offset="0" style="stop-color:rgb(0%,0%,0%);stop-opacity:0.313726;"/>
<stop offset="0.222222" style="stop-color:rgb(0%,0%,0%);stop-opacity:0.27451;"/>
<stop offset="1" style="stop-color:rgb(0%,0%,0%);stop-opacity:0;"/>
</radialGradient>
<radialGradient id="radial2" gradientUnits="userSpaceOnUse" cx="450.908936" cy="189.579361" fx="450.908936" fy="189.579361" r="21.166656" gradientTransform="matrix(-0.000000348341,-0.156265,0.281277,-0.000000203077,-40.755227,127.190665)">
<stop offset="0" style="stop-color:rgb(0%,0%,0%);stop-opacity:0.313726;"/>
<stop offset="0.222222" style="stop-color:rgb(0%,0%,0%);stop-opacity:0.27451;"/>
<stop offset="1" style="stop-color:rgb(0%,0%,0%);stop-opacity:0;"/>
</radialGradient>
<radialGradient id="radial3" gradientUnits="userSpaceOnUse" cx="450.908936" cy="189.579361" fx="450.908936" fy="189.579361" r="21.166656" gradientTransform="matrix(0.000000348341,0.156265,-0.281277,0.000000203077,104.261293,-15.054959)">
<stop offset="0" style="stop-color:rgb(0%,0%,0%);stop-opacity:0.313726;"/>
<stop offset="0.222222" style="stop-color:rgb(0%,0%,0%);stop-opacity:0.27451;"/>
<stop offset="1" style="stop-color:rgb(0%,0%,0%);stop-opacity:0;"/>
</radialGradient>
<linearGradient id="linear1" gradientUnits="userSpaceOnUse" x1="169.333328" y1="233.5" x2="169.333328" y2="-168.666656" gradientTransform="matrix(0.125012,0,0,0.125012,0,26.877566)">
<stop offset="0" style="stop-color:rgb(87.843138%,87.843138%,87.843138%);stop-opacity:1;"/>
<stop offset="1" style="stop-color:rgb(93.333334%,93.333334%,93.333334%);stop-opacity:1;"/>
</linearGradient>
<linearGradient id="linear2" gradientUnits="userSpaceOnUse" x1="254" y1="233.5" x2="254" y2="-168.666672" >
<stop offset="0" style="stop-color:rgb(38.039216%,38.039216%,38.039216%);stop-opacity:1;"/>
<stop offset="1" style="stop-color:rgb(45.882353%,45.882353%,45.882353%);stop-opacity:1;"/>
</linearGradient>
<linearGradient id="linear3" gradientUnits="userSpaceOnUse" x1="254" y1="233.5" x2="254" y2="-168.666672" >
<stop offset="0" style="stop-color:rgb(38.039216%,38.039216%,38.039216%);stop-opacity:1;"/>
<stop offset="1" style="stop-color:rgb(45.882353%,45.882353%,45.882353%);stop-opacity:1;"/>
</linearGradient>
</defs>
<g id="surface1">
<path style=" stroke:none;fill-rule:nonzero;fill:url(#linear0);" d="M 11.90625 55.871094 L 51.597656 55.871094 L 51.597656 58.8125 L 11.90625 58.8125 Z M 11.90625 55.871094 "/>
<path style=" stroke:none;fill-rule:nonzero;fill:url(#radial0);" d="M 51.597656 56.066406 L 56.890625 56.066406 L 56.890625 53.421875 L 51.597656 53.421875 Z M 51.597656 56.066406 "/>
<path style=" stroke:none;fill-rule:nonzero;fill:url(#radial1);" d="M 11.90625 56.066406 L 6.613281 56.066406 L 6.613281 58.714844 L 11.90625 58.714844 Z M 11.90625 56.066406 "/>
<path style=" stroke:none;fill-rule:nonzero;fill:url(#radial2);" d="M 11.90625 56.066406 L 6.613281 56.066406 L 6.613281 53.421875 L 11.90625 53.421875 Z M 11.90625 56.066406 "/>
<path style=" stroke:none;fill-rule:nonzero;fill:url(#radial3);" d="M 51.597656 56.066406 L 56.890625 56.066406 L 56.890625 58.714844 L 51.597656 58.714844 Z M 51.597656 56.066406 "/>
<path style=" stroke:none;fill-rule:nonzero;fill:url(#linear1);" d="M 9.261719 5.792969 L 54.246094 5.792969 C 55.707031 5.792969 56.890625 6.976562 56.890625 8.4375 L 56.890625 53.421875 C 56.890625 54.882812 55.707031 56.066406 54.246094 56.066406 L 9.261719 56.066406 C 7.800781 56.066406 6.613281 54.882812 6.613281 53.421875 L 6.613281 8.4375 C 6.613281 6.976562 7.800781 5.792969 9.261719 5.792969 Z M 9.261719 5.792969 "/>
<path style=" stroke:none;fill-rule:nonzero;fill:rgb(97.254902%,97.254902%,97.254902%);fill-opacity:0.392157;" d="M 9.261719 5.976562 C 7.796875 5.976562 6.613281 7.15625 6.613281 8.625 L 6.613281 8.953125 C 6.613281 7.488281 7.796875 6.304688 9.261719 6.308594 L 54.246094 6.308594 C 55.710938 6.304688 56.890625 7.488281 56.890625 8.953125 L 56.890625 8.625 C 56.890625 7.15625 55.710938 5.976562 54.246094 5.976562 Z M 9.261719 5.976562 "/>
<path style=" stroke:none;fill-rule:nonzero;fill:rgb(0%,0%,0%);fill-opacity:0.196078;" d="M 9.261719 55.902344 C 7.796875 55.902344 6.613281 54.722656 6.613281 53.257812 L 6.613281 52.925781 C 6.613281 54.390625 7.796875 55.570312 9.261719 55.570312 L 54.246094 55.570312 C 55.710938 55.570312 56.890625 54.390625 56.890625 52.925781 L 56.890625 53.257812 C 56.890625 54.722656 55.710938 55.902344 54.246094 55.902344 Z M 9.261719 55.902344 "/>
<path style="fill:none;stroke-width:3;stroke-linecap:round;stroke-linejoin:miter;stroke:rgb(12.941177%,12.941177%,12.941177%);stroke-opacity:1;stroke-miterlimit:4;" d="M 74.086675 -168.660675 L 433.927312 -168.660675 C 445.613696 -168.660675 455.081542 -159.192829 455.081542 -147.506445 L 455.081542 212.334192 C 455.081542 224.020576 445.613696 233.488421 433.927312 233.488421 L 74.086675 233.488421 C 62.400291 233.488421 52.901198 224.020576 52.901198 212.334192 L 52.901198 -147.506445 C 52.901198 -159.192829 62.400291 -168.660675 74.086675 -168.660675 Z M 74.086675 -168.660675 " transform="matrix(0.125012,0,0,0.125012,0,26.877566)"/>
<path style="fill:none;stroke-width:31;stroke-linecap:round;stroke-linejoin:round;stroke:url(#linear2);stroke-miterlimit:4;" d="M 158.734842 127.654778 L 232.821517 -62.827032 " transform="matrix(0.125012,0,0,0.125012,0,26.877566)"/>
<path style="fill:none;stroke-width:31;stroke-linecap:round;stroke-linejoin:round;stroke:url(#linear3);stroke-miterlimit:4;" d="M 275.161223 127.654778 L 349.247898 -62.827032 " transform="matrix(0.125012,0,0,0.125012,0,26.877566)"/>
<path style=" stroke:none;fill-rule:nonzero;fill:rgb(100%,100%,100%);fill-opacity:0.392157;" d="M 29.03125 17.0625 C 28.253906 17.09375 27.574219 17.589844 27.300781 18.320312 L 18.039062 42.136719 C 17.882812 42.523438 17.855469 42.949219 17.960938 43.351562 C 17.980469 43.269531 18.007812 43.183594 18.039062 43.105469 L 27.300781 19.289062 C 27.574219 18.558594 28.253906 18.066406 29.03125 18.03125 C 29.945312 17.992188 30.761719 18.597656 30.992188 19.480469 C 31.144531 18.886719 31.007812 18.253906 30.621094 17.777344 C 30.234375 17.300781 29.644531 17.035156 29.03125 17.0625 Z M 43.585938 17.0625 C 42.808594 17.09375 42.125 17.589844 41.855469 18.320312 L 32.59375 42.136719 C 32.4375 42.519531 32.414062 42.941406 32.515625 43.34375 C 32.535156 43.261719 32.5625 43.183594 32.59375 43.105469 L 41.855469 19.289062 C 42.125 18.5625 42.808594 18.066406 43.585938 18.03125 C 44.5 17.992188 45.316406 18.597656 45.542969 19.480469 C 45.699219 18.886719 45.5625 18.253906 45.175781 17.777344 C 44.789062 17.300781 44.199219 17.035156 43.585938 17.0625 Z M 43.585938 17.0625 "/>
<path style=" stroke:none;fill-rule:nonzero;fill:rgb(0%,0%,0%);fill-opacity:0.235294;" d="M 30.972656 19.589844 C 30.953125 19.644531 30.933594 19.703125 30.914062 19.757812 L 21.652344 43.574219 C 21.363281 44.351562 20.605469 44.859375 19.773438 44.835938 C 18.941406 44.808594 18.21875 44.253906 17.980469 43.457031 C 17.679688 44.457031 18.230469 45.511719 19.21875 45.84375 C 20.210938 46.175781 21.285156 45.664062 21.652344 44.6875 L 30.914062 20.871094 C 31.078125 20.464844 31.097656 20.011719 30.972656 19.589844 Z M 30.972656 19.589844 "/>
<path style=" stroke:none;fill-rule:nonzero;fill:rgb(0%,0%,0%);fill-opacity:0.235294;" d="M 45.523438 19.589844 C 45.507812 19.644531 45.488281 19.703125 45.464844 19.757812 L 36.207031 43.574219 C 35.914062 44.351562 35.15625 44.855469 34.324219 44.828125 C 33.496094 44.800781 32.773438 44.246094 32.535156 43.449219 C 32.242188 44.449219 32.789062 45.5 33.773438 45.832031 C 34.761719 46.167969 35.835938 45.660156 36.207031 44.6875 L 45.464844 20.871094 C 45.632812 20.464844 45.652344 20.011719 45.523438 19.589844 Z M 45.523438 19.589844 "/>
<path style="fill:none;stroke-width:3;stroke-linecap:round;stroke-linejoin:round;stroke:rgb(12.941177%,12.941177%,12.941177%);stroke-opacity:1;stroke-miterlimit:4;" d="M 232.227823 -78.513034 C 226.009667 -78.263058 220.572686 -74.294687 218.385395 -68.451495 L 144.29872 122.061562 C 142.173923 127.248567 143.017593 133.154253 146.517258 137.528835 C 149.985677 141.934664 155.578893 144.090709 161.109615 143.215792 C 166.640337 142.340876 171.264895 138.52874 173.20221 133.279241 L 247.288885 -57.202569 C 249.257447 -62.10835 248.632507 -67.670319 245.570299 -71.982407 C 242.539339 -76.294496 237.508569 -78.76301 232.227823 -78.513034 Z M 232.227823 -78.513034 " transform="matrix(0.125012,0,0,0.125012,0,26.877566)"/>
<path style="fill:none;stroke-width:3;stroke-linecap:round;stroke-linejoin:round;stroke:rgb(12.941177%,12.941177%,12.941177%);stroke-opacity:1;stroke-miterlimit:4;" d="M 348.654205 -78.513034 C 342.436049 -78.263058 336.967821 -74.294687 334.811777 -68.451495 L 260.725102 122.061562 C 258.631552 127.21732 259.475221 133.123006 262.974887 137.497588 C 266.443306 141.87217 272.005275 144.028215 277.50475 143.153298 C 283.035471 142.278382 287.66003 138.52874 289.628592 133.279241 L 363.68402 -57.202569 C 365.683829 -62.10835 365.027642 -67.670319 361.996681 -71.982407 C 358.934473 -76.294496 353.903704 -78.76301 348.654205 -78.513034 Z M 348.654205 -78.513034 " transform="matrix(0.125012,0,0,0.125012,0,26.877566)"/>
</g>
</svg>
